X: 269
T:Da New Rigged Ship
M:C|
L:1/8
Q:1/2=112
K:ADor
eg|a2ab ageg|a2ab agef|g2gg fgag|f2d2 d2:|
K:A Mixolydian
ed|cAcA B2ed|cAcA E2ed|cAcA B2ed|c2A2 A2:|
K:A Dorian
AB|cdec BcdB|ABAF GFE2|cdec BcdB|c2A2 A2:|

These inflections may be used in Shetland versions of tunes from elsewhere.
In Playford's 1651 collection there is a tune, probably Scottish, called
"Stingo", which is straightforwardly in the minor mode:

